dist/assets/img/icons/original.svg

<?xml version="1.0" encoding="UTF-8" standalone="no"?>
<svg width="24px" height="21px" viewBox="0 0 24 21" version="1.1" xmlns="http://www.w3.org/2000/svg" xmlns:xlink="http://www.w3.org/1999/xlink">
    <!-- Generator: Sketch 3.8.3 (29802) - http://www.bohemiancoding.com/sketch -->
    <title>text-24px-glyph_capitalize</title>
    <desc>Created with Sketch.</desc>
    <defs></defs>
    <g id="Page-1" stroke="none" stroke-width="1" fill="none" fill-rule="evenodd">
        <g id="Landing-Writers" transform="translate(-738.000000, -2298.000000)" fill="#5C8BE7">
            <g id="Group-13" transform="translate(-92.000000, 2247.000000)">
                <g id="text-24px-glyph_capitalize" transform="translate(830.000000, 51.000000)">
                    <g id="Group">
                        <path d="M23,3 L15,3 C14.44775,3 14,2.55225 14,2 C14,1.44775 14.44775,1 15,1 L23,1 C23.55225,1 24,1.44775 24,2 C24,2.55225 23.55225,3 23,3 L23,3 Z" id="Shape"></path>
                        <path d="M23,9 L15,9 C14.44775,9 14,8.55225 14,8 C14,7.44775 14.44775,7 15,7 L23,7 C23.55225,7 24,7.44775 24,8 C24,8.55225 23.55225,9 23,9 L23,9 Z" id="Shape"></path>
                        <path d="M23,15 L1,15 C0.44775,15 0,14.55273 0,14 C0,13.44727 0.44775,13 1,13 L23,13 C23.55225,13 24,13.44727 24,14 C24,14.55273 23.55225,15 23,15 L23,15 Z" id="Shape"></path>
                        <path d="M23,21 L1,21 C0.44775,21 0,20.55273 0,20 C0,19.44727 0.44775,19 1,19 L23,19 C23.55225,19 24,19.44727 24,20 C24,20.55273 23.55225,21 23,21 L23,21 Z" id="Shape"></path>
                        <path d="M7.62004,10 L7.62004,8.92261 L8.75261,8.79847 L8.25514,7.36184 L4.82985,7.36184 L4.34648,8.79847 L5.43767,8.92261 L5.43767,10 L1.58387,10 L1.58387,8.92261 L2.19169,8.77058 C2.35751,8.7292 2.48165,8.67403 2.53682,8.50821 L5.5618,0 L8.00655,0 L11.01774,8.53579 C11.07291,8.70161 11.18356,8.7292 11.34908,8.77058 L11.98448,8.92261 L11.98448,10 L7.62004,10 L7.62004,10 Z M6.61161,2.1131 L6.52885,2.1131 L5.25805,5.87004 L7.84073,5.87004 L6.61161,2.1131 L6.61161,2.1131 Z" id="Shape"></path>
                    </g>
                </g>
            </g>
        </g>
    </g>
</svg>

<svg width="24" height="21" viewBox="0 0 24 21" xmlns="http://www.w3.org/2000/svg"><title>text-24px-glyph_capitalize</title><g fill="#5C8BE7" fill-rule="evenodd"><path d="M23 3h-8a1 1 0 0 1 0-2h8a1 1 0 0 1 0 2zM23 9h-8a1 1 0 0 1 0-2h8a1 1 0 0 1 0 2zM23 15H1a1 1 0 1 1 0-2h22a1 1 0 1 1 0 2zM23 21H1a1 1 0 1 1 0-2h22a1 1 0 1 1 0 2zM7.62 10V8.923l1.133-.125-.498-1.436H4.83l-.484 1.436 1.092.125V10H1.584V8.923l.608-.152c.166-.042.29-.097.345-.263L5.562 0h2.445l3.01 8.536c.056.166.167.193.332.235l.635.152V10H7.62zM6.612 2.113h-.083L5.258 5.87h2.583L6.61 2.113z"/></g></svg>
